icons/svgs/caret-up-solid.svg

<svg width="24" height="24" viewBox="0 0 24 24" fill="none" xmlns="http://www.w3.org/2000/svg">
<path d="M13.3592 7.39062L18.3592 12.3906C18.7108 12.7422 18.828 13.2891 18.6327 13.7578C18.4374 14.2266 17.9686 14.5391 17.4999 14.5391H7.49985C6.99204 14.5391 6.52329 14.2266 6.32798 13.7578C6.13266 13.2891 6.24985 12.7422 6.60141 12.3906L11.6014 7.39062C12.0702 6.88281 12.8905 6.88281 13.3592 7.39062Z" fill="black"/>
</svg>

<svg xmlns="http://www.w3.org/2000/svg" width="24" height="24" fill="currentColor" class="icon-caret-up-solid" viewBox="0 0 24 24">
  <mask id="a" width="13" height="8" x="6" y="7" maskUnits="userSpaceOnUse" style="mask-type:alpha">
    <path d="m13.36 7.39 5 5c.351.352.468.9.273 1.368s-.664.781-1.133.781h-10a1.28 1.28 0 0 1-1.172-.781 1.26 1.26 0 0 1 .274-1.367l5-5a1.205 1.205 0 0 1 1.758 0"/>
  </mask>
  <g mask="url(#a)">
    <path d="M0 0h24v24H0z"/>
  </g>
</svg>
